X: 42037
T: Waltz For Janice
R: waltz
M: 3/4
K: Eminor
|:ABd|"Em"e3 dBA|"Em"GE2 ABd|"C"e3 def|"G"g3a"D"fd|
"Em"e3 dBA|"Em"GE3 eg|f3edB|1 "Em"e3:|2 "Em"e6||
|:"Em"b2 bgeg|"D"af "Cj7"geBe|"Bm"f2 fede|"D"fefg a2|
"Em"b2 bgeg|"D"af "Cj7"geBe|"Bm"f2 fedB|1 "Em"e6:|2 "Em"e3||

